public/cloud-icons/azure/management/billing-subscription.svg

<?xml version="1.0" encoding="UTF-8" standalone="no"?>
<!-- Generated by Microsoft Visio, SVG Export Billing Subscription.svg Page-1 -->

<svg
   xmlns:dc="http://purl.org/dc/elements/1.1/"
   xmlns:cc="http://creativecommons.org/ns#"
   xmlns:rdf="http://www.w3.org/1999/02/22-rdf-syntax-ns#"
   xmlns:svg="http://www.w3.org/2000/svg"
   xmlns="http://www.w3.org/2000/svg"
   xmlns:sodipodi="http://sodipodi.sourceforge.net/DTD/sodipodi-0.dtd"
   xmlns:inkscape="http://www.inkscape.org/namespaces/inkscape"
   width="0.78740305in"
   height="0.70861691in"
   viewBox="0 0 56.692928 51.020402"
   xml:space="preserve"
   class="st6"
   version="1.1"
   id="svg50"
   sodipodi:docname="Billing Subscription.svg"
   style="font-size:12px;overflow:visible;color-interpolation-filters:sRGB;fill:none;fill-rule:evenodd;stroke-linecap:square;stroke-miterlimit:3"
   inkscape:version="0.92.5 (2060ec1f9f, 2020-04-08)"><metadata
   id="metadata54"><rdf:RDF><cc:Work
       rdf:about=""><dc:format>image/svg+xml</dc:format><dc:type
         rdf:resource="http://purl.org/dc/dcmitype/StillImage" /></cc:Work></rdf:RDF></metadata><sodipodi:namedview
   pagecolor="#ffffff"
   bordercolor="#666666"
   borderopacity="1"
   objecttolerance="10"
   gridtolerance="10"
   guidetolerance="10"
   inkscape:pageopacity="0"
   inkscape:pageshadow="2"
   inkscape:window-width="640"
   inkscape:window-height="480"
   id="namedview52"
   showgrid="false"
   inkscape:zoom="1.4869072"
   inkscape:cx="37.795348"
   inkscape:cy="34.005213"
   inkscape:window-x="0"
   inkscape:window-y="0"
   inkscape:window-maximized="0"
   inkscape:current-layer="svg50" />
	<style
   type="text/css"
   id="style2">
	<![CDATA[
		.st1 {fill:#0078d4;stroke:none;stroke-linecap:butt;stroke-width:34}
		.st2 {fill:url(#grad0-8);stroke:none;stroke-linecap:butt;stroke-width:34}
		.st3 {fill:#ffffff;stroke:none;stroke-linecap:butt;stroke-width:34}
		.st4 {fill:#e6e6e6;stroke:none;stroke-linecap:butt;stroke-width:34}
		.st5 {fill:#76bc2d;stroke:none;stroke-linecap:butt;stroke-width:34}
		.st6 {fill:none;fill-rule:evenodd;font-size:12px;overflow:visible;stroke-linecap:square;stroke-miterlimit:3}
	]]>
	</style>

	<defs
   id="Patterns_And_Gradients">
		<linearGradient
   id="grad0-8"
   x1="0"
   y1="113.18607"
   x2="35.628511"
   y2="113.18607"
   gradientTransform="scale(1.2501224,0.79992166)"
   gradientUnits="userSpaceOnUse">
			<stop
   offset="0.225"
   stop-color="#9cebff"
   stop-opacity="1"
   id="stop4" />
			<stop
   offset="1"
   stop-color="#50e6ff"
   stop-opacity="1"
   id="stop6" />
		</linearGradient>
	</defs>
	<g
   id="g48"
   transform="translate(-34.000079,-34.002999)">
		<title
   id="title10">Page-1</title>
		<g
   id="group13574-1"
   transform="translate(34,-34.0157)">
			<title
   id="title12">Billing Subscription.13574</title>
			<g
   id="group13575-2">
				<title
   id="title14">Sheet.13575</title>
				<g
   id="shape13576-3"
   transform="translate(0,-22.5213)">
					<title
   id="title16">Sheet.13576</title>
					<path
   d="m 44.54,115.69 a 3.42381,3.35122 0 0 1 -3.43,3.35 H 3.43 A 3.42381,3.35122 0 0 1 0,115.69 v -21.8 a 3.42696,3.3543 0 0 1 3.43,-3.35 h 37.68 a 3.42696,3.3543 0 0 1 3.43,3.35 z"
   class="st1"
   id="path18"
   inkscape:connector-curvature="0"
   style="fill:#0078d4;stroke:none;stroke-width:34;stroke-linecap:butt" />
				</g>
				<g
   id="shape13577-5"
   transform="translate(6.85077,-9.10718)">
					<title
   id="title21">Sheet.13577</title>
					<path
   d="m 44.54,115.69 a 3.42381,3.35122 0 0 1 -3.43,3.35 H 3.43 A 3.42696,3.3543 0 0 1 0,115.69 v -21.8 a 3.42381,3.35122 0 0 1 3.43,-3.35 h 37.68 a 3.42066,3.34814 0 0 1 3.43,3.35 z"
   class="st2"
   id="path23"
   inkscape:connector-curvature="0"
   style="fill:url(#grad0-8);stroke:none;stroke-width:34;stroke-linecap:butt" />
				</g>
				<g
   id="shape13578-9"
   transform="translate(11.9912,-14.1355)">
					<title
   id="title26">Sheet.13578</title>
					<path
   d="m 17.99,110.65 h 5.14 a 0.856741,0.838576 0 0 1 0.856741,0.83858 L 23.98,113.17 a 0.856741,0.838576 0 0 1 -0.856741,0.83858 L 17.99,114.01 a 0.856741,0.838576 0 0 1 -0.856741,-0.83858 L 17.13,111.49 a 0.856741,0.838576 0 0 1 0.856741,-0.83858 z m 8.56,0 h 5.14 a 0.856741,0.838576 0 0 1 0.856741,0.83858 L 32.55,113.17 a 0.856741,0.838576 0 0 1 -0.856741,0.83858 L 26.55,114.01 a 0.856741,0.838576 0 0 1 -0.856741,-0.83858 L 25.7,111.49 a 0.856741,0.838576 0 0 1 0.856741,-0.83858 z m -25.69,0 h 5.13 a 0.856741,0.838576 0 0 1 0.856741,0.83858 L 6.85,113.17 a 0.856741,0.838576 0 0 1 -0.856741,0.83858 L 0.86,114.01 A 0.856741,0.838576 0 0 1 0.003259,113.17142 L 0,111.49 a 0.856741,0.838576 0 0 1 0.856741,-0.83858 z m 0,6.71 h 11.99 a 0.856741,0.838576 0 0 1 0.856741,0.83858 A 0.856741,0.838576 0 0 1 12.85,119.03715 L 0.86,119.04 A 0.856741,0.838576 0 0 1 0.003259,118.20142 0.856741,0.838576 0 0 1 0.86,117.36285 Z m 17.13,0 h 3.42 a 0.856741,0.838576 0 0 1 0.856741,0.83858 0.856741,0.838576 0 0 1 -0.856741,0.83857 l -3.42,0.003 A 0.856741,0.838576 0 0 1 17.133259,118.20142 0.856741,0.838576 0 0 1 17.99,117.36285 Z m -8.56,-6.71 h 5.13 a 0.856741,0.838576 0 0 1 0.856741,0.83858 L 15.42,113.17 a 0.856741,0.838576 0 0 1 -0.856741,0.83858 L 9.43,114.01 A 0.856741,0.838576 0 0 1 8.573259,113.17142 L 8.57,111.49 a 0.856741,0.838576 0 0 1 0.856741,-0.83858 z M 8.56,106 a 1.3985,1.36885 0 0 1 -1.45,1.3 H 1.46 A 1.3985,1.36885 0 0 1 0,106 v -3.73 c 0,-0.72 0.65,-1.68 1.46,-1.68 h 5.66 a 1.3985,1.36885 0 0 1 1.46,1.31 z"
   class="st3"
   id="path28"
   inkscape:connector-curvature="0"
   style="fill:#ffffff;stroke:none;stroke-width:34;stroke-linecap:butt" />
				</g>
				<g
   id="shape13579-11"
   transform="translate(0,-42.6409)">
					<title
   id="title31">Sheet.13579</title>
					<rect
   x="0"
   y="115.685"
   width="44.537899"
   height="3.3543"
   class="st4"
   id="rect33"
   style="fill:#e6e6e6;stroke:none;stroke-width:34;stroke-linecap:butt" />
				</g>
				<g
   id="shape13580-13"
   transform="translate(28.3764)">
					<title
   id="title36">Sheet.13580</title>
					<ellipse
   cx="14.1583"
   cy="105.181"
   rx="14.1583"
   ry="13.8581"
   class="st5"
   id="ellipse38"
   style="fill:#76bc2d;stroke:none;stroke-width:34;stroke-linecap:butt" />
				</g>
				<g
   id="shape13581-15"
   transform="translate(31.0814,-4.89369)">
					<title
   id="title41">Sheet.13581</title>
					<path
   d="M 1.34,108.77 A 0.497665,0.487114 0 0 1 0.653348,108.59735 L 0.05,107.61 a 0.500815,0.490197 0 0 1 0.176388,-0.67209 L 4.98,104.16 a 0.503965,0.49328 0 0 1 0.686652,0.17265 L 8.51,108.99 a 0.500815,0.490197 0 0 1 -0.176388,0.67209 L 7.32,110.25 A 0.507115,0.496363 0 0 1 6.633348,110.07735 L 5.79,108.7 a 6.43185,6.29548 -180 0 0 -0.13,2.32 5.91529,5.78987 -180 0 0 0.79,2.21 5.7452,5.62339 -180 0 0 1.09,1.32 6.4665,6.3294 -180 0 0 1.42,0.96 6.13892,6.00876 -180 0 0 1.61,0.55 6.31531,6.18141 -180 0 0 1.3,0.12 0.497665,0.487114 0 0 1 0.491366,0.44395 L 12.58,119.02 A 8.84774,8.66014 0 0 1 10.02,118.88 9.32335,9.12568 0 0 1 7.62,118.07 9.04617,8.85437 0 0 1 3,107.8 Z m 11.55,-4.51 a 6.20822,6.07659 0 0 1 1.62,0.56 6.4854,6.34789 0 0 1 1.42,0.96 5.98458,5.8577 0 0 1 1.89,3.52 6.36571,6.23074 0 0 1 -0.13,2.33 l -0.84,-1.38 a 0.503965,0.49328 -180 0 0 -0.686652,-0.17265 L 15.15,110.67 a 0.500815,0.490197 -180 0 0 -0.173238,0.67209 L 17.82,115.99 a 0.500815,0.490197 -180 0 0 0.686652,0.17265 L 23.26,113.39 a 0.497665,0.487114 -180 0 0 0.176388,-0.67209 L 22.83,111.73 a 0.500815,0.490197 -180 0 0 -0.686652,-0.17265 L 20.5,112.51 a 9.04302,8.85129 -180 0 0 -2.54,-8.84 9.09657,8.9037 -180 0 0 -2.08,-1.42 9.34225,9.14417 -180 0 0 -2.4,-0.81 8.94853,8.7588 -180 0 0 -2.05,-0.17 0.497665,0.487114 -180 0 0 -0.469317,0.53336 L 11.14,103.69 a 0.491366,0.480948 -180 0 0 0.491366,0.44395 A 5.69165,5.57098 0 0 1 12.89,104.26 Z"
   class="st3"
   id="path43"
   inkscape:connector-curvature="0"
   style="fill:#ffffff;stroke:none;stroke-width:34;stroke-linecap:butt" />
				</g>
			</g>
		</g>
	</g>
</svg>

<svg xmlns="http://www.w3.org/2000/svg" xml:space="preserve" width="75.591" height="68.027" style="font-size:12px;overflow:visible;color-interpolation-filters:sRGB;fill-rule:evenodd;stroke-linecap:square;stroke-miterlimit:3" viewBox="0 0 56.693 51.02"><defs><linearGradient id="a" x1="0" x2="35.629" y1="113.186" y2="113.186" gradientTransform="scale(1.25012 .79992)" gradientUnits="userSpaceOnUse"><stop offset=".225" stop-color="#9cebff"/><stop offset="1" stop-color="#50e6ff"/></linearGradient></defs><g transform="translate(-34 -34.003)"><title>Page-1</title><g transform="translate(34 -34.016)"><title>Billing Subscription.13574</title><title>Sheet.13575</title><g transform="translate(0 -22.521)"><title>Sheet.13576</title><path d="M44.54 115.69a3.424 3.351 0 0 1-3.43 3.35H3.43A3.424 3.351 0 0 1 0 115.69v-21.8a3.427 3.354 0 0 1 3.43-3.35h37.68a3.427 3.354 0 0 1 3.43 3.35z" style="fill:#0078d4;stroke:none;stroke-width:34;stroke-linecap:butt"/></g><g transform="translate(6.85 -9.107)"><title>Sheet.13577</title><path d="M44.54 115.69a3.424 3.351 0 0 1-3.43 3.35H3.43A3.427 3.354 0 0 1 0 115.69v-21.8a3.424 3.351 0 0 1 3.43-3.35h37.68a3.42 3.348 0 0 1 3.43 3.35z" style="fill:url(#a);stroke:none;stroke-width:34;stroke-linecap:butt"/></g><g transform="translate(11.991 -14.136)"><title>Sheet.13578</title><path d="M17.99 110.65h5.14a.857.839 0 0 1 .857.839l-.007 1.681a.857.839 0 0 1-.857.839l-5.133.001a.857.839 0 0 1-.857-.839l-.003-1.681a.857.839 0 0 1 .857-.839zm8.56 0h5.14a.857.839 0 0 1 .857.839l.003 1.681a.857.839 0 0 1-.857.839l-5.143.001a.857.839 0 0 1-.857-.839l.007-1.681a.857.839 0 0 1 .857-.839zm-25.69 0h5.13a.857.839 0 0 1 .857.839l.003 1.681a.857.839 0 0 1-.857.839l-5.133.001a.857.839 0 0 1-.857-.839L0 111.49a.857.839 0 0 1 .857-.839zm0 6.71h11.99a.857.839 0 0 1 .857.839.857.839 0 0 1-.857.838l-11.99.003a.857.839 0 0 1-.857-.839.857.839 0 0 1 .857-.838Zm17.13 0h3.42a.857.839 0 0 1 .857.839.857.839 0 0 1-.857.838l-3.42.003a.857.839 0 0 1-.857-.839.857.839 0 0 1 .857-.838Zm-8.56-6.71h5.13a.857.839 0 0 1 .857.839l.003 1.681a.857.839 0 0 1-.857.839l-5.133.001a.857.839 0 0 1-.857-.839l-.003-1.681a.857.839 0 0 1 .857-.839zM8.56 106a1.399 1.369 0 0 1-1.45 1.3H1.46A1.399 1.369 0 0 1 0 106v-3.73c0-.72.65-1.68 1.46-1.68h5.66a1.399 1.369 0 0 1 1.46 1.31z" style="fill:#fff;stroke:none;stroke-width:34;stroke-linecap:butt"/></g><g transform="translate(0 -42.64)"><title>Sheet.13579</title><path d="M0 115.685h44.538v3.354H0z" style="fill:#e6e6e6;stroke:none;stroke-width:34;stroke-linecap:butt"/></g><g transform="translate(28.376)"><title>Sheet.13580</title><ellipse cx="14.158" cy="105.181" rx="14.158" ry="13.858" style="fill:#76bc2d;stroke:none;stroke-width:34;stroke-linecap:butt"/></g><g transform="translate(31.081 -4.894)"><title>Sheet.13581</title><path d="M1.34 108.77a.498.487 0 0 1-.687-.173l-.603-.987a.5.49 0 0 1 .176-.672l4.754-2.778a.504.493 0 0 1 .687.173l2.843 4.657a.5.49 0 0 1-.176.672l-1.014.588a.507.496 0 0 1-.687-.173L5.79 108.7a6.432 6.295-180 0 0-.13 2.32 5.915 5.79-180 0 0 .79 2.21 5.745 5.623-180 0 0 1.09 1.32 6.467 6.33-180 0 0 1.42.96 6.139 6.009-180 0 0 1.61.55 6.315 6.181-180 0 0 1.3.12.498.487 0 0 1 .491.444l.219 2.396a8.848 8.66 0 0 1-2.56-.14 9.323 9.126 0 0 1-2.4-.81A9.046 8.854 0 0 1 3 107.8Zm11.55-4.51a6.208 6.077 0 0 1 1.62.56 6.485 6.348 0 0 1 1.42.96 5.985 5.858 0 0 1 1.89 3.52 6.366 6.23 0 0 1-.13 2.33l-.84-1.38a.504.493-180 0 0-.687-.173l-1.013.593a.5.49-180 0 0-.173.672l2.843 4.648a.5.49-180 0 0 .687.173l4.753-2.773a.498.487-180 0 0 .176-.672l-.606-.988a.5.49-180 0 0-.687-.173l-1.643.953a9.043 8.851-180 0 0-2.54-8.84 9.097 8.904-180 0 0-2.08-1.42 9.342 9.144-180 0 0-2.4-.81 8.949 8.759-180 0 0-2.05-.17.498.487-180 0 0-.47.533l.18 1.887a.491.48-180 0 0 .491.444 5.692 5.571 0 0 1 1.259.126" style="fill:#fff;stroke:none;stroke-width:34;stroke-linecap:butt"/></g></g></g></svg>
